X: 27660
T: Mordaunt's Fancy
R: jig
M: 6/8
K: Gmajor
D|:G2B BAB|GEF GB/c/d|g3 dBG|DFA cBA|
D2B BAB|GEF GB/c/d|g3 dBG|1 DFA G2D:|2 DFA GB/c/d||
|:g3 fed|Bdd def|g3 fed|Bee e2f|
g3 afd|gfe dBG|AFD DFA|1 BGG GB/c/d:|2 BGF G2D||

